assets/emoji/1f566.svg

<svg xmlns="http://www.w3.org/2000/svg" viewBox="0 0 128 128" style="enable-background:new 0 0 128 128" xml:space="preserve"><circle style="fill:#98c0d0" cx="64" cy="64" r="60"/><circle style="fill:#fcebcd" cx="64" cy="64" r="48.14"/><path style="fill:#c2e3f0" d="M50.3 15.06c-6.42 1.86-15.41 4.71-25.03 16.2-9.5 11.37-11.46 24.58-12.07 33.69 0 0-5.49 6.87-5.75 5.59-2.07-9.95 2.11-32.19 13.04-43.95C33.21 12.91 49.75 8.06 55.73 7.15c1.03-.16-3.48 7.35-5.43 7.91z"/><circle style="fill:#fff" cx="64" cy="64" r="45.59"/><path style="fill:none;stroke:#563428;stroke-width:4;stroke-linecap:round;stroke-miterlimit:10" d="M64 64.07v29"/><circle style="fill:#563428" cx="64" cy="64" r="5.06"/><path style="fill:none;stroke:#563428;stroke-width:6;stroke-linecap:round;stroke-miterlimit:10" d="m64 64-5.64-20.47"/><path style="fill:none;stroke:#6596a3;stroke-width:5;stroke-miterlimit:10" d="M64 100v5m0-82v5m0 72v5m0-82v5M28 64h-5m82 0h-5m-72 0h-5m82 0h-5"/><path style="fill:none;stroke:#b0bec5;stroke-width:3;stroke-miterlimit:10" d="m46 95.18-2.5 4.33m41-71.02L82 32.82M46 95.18l-2.5 4.33m41-71.02L82 32.82m0 62.36 2.5 4.33m-41-71.02 2.5 4.33m36 62.36 2.5 4.33m-41-71.02 2.5 4.33M95.18 82l4.33 2.5m-71.02-41 4.33 2.5m62.36 36 4.33 2.5m-71.02-41 4.33 2.5m0 36-4.33 2.5m71.02-41L95.18 46M32.82 82l-4.33 2.5m71.02-41L95.18 46"/></svg>

<svg xmlns="http://www.w3.org/2000/svg" viewBox="0 0 128 128" style="enable-background:new 0 0 128 128" xml:space="preserve"><circle style="fill:#98c0d0" cx="64" cy="64" r="60"/><circle style="fill:#fcebcd" cx="64" cy="64" r="48.14"/><path style="fill:#c2e3f0" d="M50.3 15.06c-6.42 1.86-15.41 4.71-25.03 16.2-9.5 11.37-11.46 24.58-12.07 33.69 0 0-5.49 6.87-5.75 5.59-2.07-9.95 2.11-32.19 13.04-43.95C33.21 12.91 49.75 8.06 55.73 7.15c1.03-.16-3.48 7.35-5.43 7.91z"/><circle style="fill:#fff" cx="64" cy="64" r="45.59"/><path style="fill:none;stroke:#563428;stroke-width:4;stroke-linecap:round;stroke-miterlimit:10" d="M64 64.07v29"/><circle style="fill:#563428" cx="64" cy="64" r="5.06"/><path style="fill:none;stroke:#563428;stroke-width:6;stroke-linecap:round;stroke-miterlimit:10" d="m64 64-5.64-20.47"/><path style="fill:none;stroke:#6596a3;stroke-width:5;stroke-miterlimit:10" d="M64 100v5M64 23v5M64 100v5M64 23v5M28 64h-5M105 64h-5M28 64h-5M105 64h-5"/><path style="fill:none;stroke:#b0bec5;stroke-width:3;stroke-miterlimit:10" d="m46 95.18-2.5 4.33M84.5 28.49 82 32.82M46 95.18l-2.5 4.33M84.5 28.49 82 32.82M82 95.18l2.5 4.33M43.5 28.49l2.5 4.33M82 95.18l2.5 4.33M43.5 28.49l2.5 4.33M95.18 82l4.33 2.5M28.49 43.5l4.33 2.5M95.18 82l4.33 2.5M28.49 43.5l4.33 2.5M32.82 82l-4.33 2.5M99.51 43.5 95.18 46M32.82 82l-4.33 2.5M99.51 43.5 95.18 46"/></svg>
